!!!!SEGMENT: pl-wtm--r-693-m--008_moniuszko-stanislaw--sonety-krymskie-epilog.krn
!!!cenid: 18xx:2940
!!!COM: Moniuszko, Stanisław
!!!COM-rismid: pe30008351
!!!CDT: 1819/05/05-1872/06/04
!!!CNT: Polish
!!!GTL: Sonety krymskie
!!!OTL: Epilog
!!!PDT:
!!!AGN: Secular; Sonnet
!!!SMS-siglum: PL-Wtm
!!!SMS-shelfmark: R 693/M
!!!SMS-shelfwork: 008 G
!!!SMS-variant:
!!!SMS-altvar:
!!!NIFC-rismid: 1001096157
!!!URL-scan: http://repozytorium.nifc.pl/skany/pl-wtm-nut--r693m
!!!ONB-nifc: UWAGA: zbiór zawiera: 1. Cisza morska, 2. Żegluga, 3. Burza, 4. Ruina, 5. Noc, 6. Hymn, 7. Pielgrzym, 8. Epilog
!!!OMD: Lento.
**kern	**text	**kern	**text	**text	**text	**kern	**text	**text	**text	**kern	**text	**text	**text	**kern	**text	**kern	**text	**text	**text	**dynam	**kern	**text	**kern	**text	**text	**text	**dynam
*part8	*part8	*part7	*part7	*part7	*part7	*part6	*part6	*part6	*part6	*part5	*part5	*part5	*part5	*part4	*part4	*part3	*part3	*part3	*part3	*part3	*part2	*part2	*part1	*part1	*part1	*part1	*part1
*staff8	*staff8	*staff7	*staff7	*staff7	*staff7	*staff6	*staff6	*staff6	*staff6	*staff5	*staff5	*staff5	*staff5	*staff4	*staff4	*staff3	*staff3	*staff3	*staff3	*	*staff2	*staff2	*staff1	*staff1	*staff1	*staff1	*
*Iempty	*	*Iempty	*	*	*	*Itenor	*	*	*	*Itenor	*	*	*	*Ialto	*	*Ialto	*	*	*	*	*Isoprn	*	*Isoprn	*	*	*	*
*I"[Bas]	*	*I"[Bas]	*	*	*	*I"[Tenor]	*	*	*	*I"[Tenor]	*	*	*	*I"[Alt]	*	*I"Alt.	*	*	*	*	*I"[Sopran]	*	*I"Sopr.	*	*	*	*
*clefF4	*	*clefF4	*	*	*	*clefG2	*	*	*	*clefG2	*	*	*	*clefG2	*	*clefG2	*	*	*	*	*clefG2	*	*clefG2	*	*	*	*
*	*	*	*	*	*	*ITrd8c12	*	*	*	*ITrd8c12	*	*	*	*	*	*	*	*	*	*	*	*	*	*	*	*	*
*k[f#c#g#]	*	*k[f#c#g#]	*	*	*	*k[f#c#g#]	*	*	*	*k[f#c#g#]	*	*	*	*k[f#c#g#]	*	*k[f#c#g#]	*	*	*	*	*k[f#c#g#]	*	*k[f#c#g#]	*	*	*	*
*F#:	*	*F#:	*	*	*	*F#:	*	*	*	*F#:	*	*	*	*F#:	*	*F#:	*	*	*	*	*F#:	*	*F#:	*	*	*	*
*M4/4	*	*M4/4	*	*	*	*M4/4	*	*	*	*M4/4	*	*	*	*M4/4	*	*M4/4	*	*	*	*	*M4/4	*	*M4/4	*	*	*	*
*met(c)	*	*met(c)	*	*	*	*met(c)	*	*	*	*met(c)	*	*	*	*met(c)	*	*met(c)	*	*	*	*	*met(c)	*	*met(c)	*	*	*	*
=1	=1	=1	=1	=1	=1	=1	=1	=1	=1	=1	=1	=1	=1	=1	=1	=1	=1	=1	=1	=1	=1	=1	=1	=1	=1	=1	=1
!	!	!	!	!	!	!	!	!	!	!	!	!	!	!	!	!	!	!	!	!	!	!	!LO:TX:t=P:problem:tekst w języku włoskim będzie w przyszłości do sprawdzenia (ustalone z EZ)	!	!	!	!
!	!	!	!	!	!	!	!	!	!	!	!	!	!	!	!	!	!	!	!	!	!	!	!LO:TX:a:t=1.	!	!	!	!
!	!	!	!	!	!	!	!	!	!	!	!	!	!	!	!	!	!	!	!	!	!	!	!LO:TX:a:t=Epilogo.:color=blue	!	!	!	!
!	!	!	!	!	!	!	!	!	!	!	!	!	!	!	!	!	!	!	!	!	!	!	!LO:TX:a:t=Nº 9. Epilog.	!	!	!	!
!	!	!	!	!	!	!	!	!	!	!	!	!	!	!	!	!	!	!	!	!	!	!	!LO:TX:a:t=Ajudah.	!	!	!	!
1ryy	.	1r	.	.	.	1ryy	.	.	.	1r	.	.	.	1ryy	.	1r	.	.	.	.	1ryy	.	1r	.	.	.	.
=2	=2	=2	=2	=2	=2	=2	=2	=2	=2	=2	=2	=2	=2	=2	=2	=2	=2	=2	=2	=2	=2	=2	=2	=2	=2	=2	=2
*	*	*	*	*	*	*	*	*	*	*	*	*	*	*	*	*	*	*	*	*	*	*	*^	*	*	*	*
!	!	!	!	!	!	!	!	!	!	!	!	!	!	!	!	!	!	!	!	!	!	!	!LO:TX:a:t=Tenor:color=red	!	!	!	!	!
!	!	!	!	!	!	!	!	!	!	!	!	!	!	!	!	!	!	!	!	!	!	!	!LO:TX:a:t=Solo Recit.	!	!	!	!	!
*	*	*	*	*	*	*	*	*	*	*	*	*	*	*	*	*	*	*	*	*	*	*	*	*	*	*color:red	*color:darkblue	*
1ryy	.	1r	.	.	.	1ryy	.	.	.	1r	.	.	.	1ryy	.	1r	.	.	.	.	1ryy	.	2cc#\	4..cc#/@	Lu-	Dal-	Gern	.
.	.	.	.	.	.	.	.	.	.	.	.	.	.	.	.	.	.	.	.	.	.	.	.	16g#/@	.	-le	.	.
.	.	.	.	.	.	.	.	.	.	.	.	.	.	.	.	.	.	.	.	.	.	.	8g#/	2ryy	-bię	roc-	von	.
.	.	.	.	.	.	.	.	.	.	.	.	.	.	.	.	.	.	.	.	.	.	.	8g#/	.	po-	-cie	A-	.
.	.	.	.	.	.	.	.	.	.	.	.	.	.	.	.	.	.	.	.	.	.	.	8f#/	.	-glą-	del	-ju-	.
.	.	.	.	.	.	.	.	.	.	.	.	.	.	.	.	.	.	.	.	.	.	.	8g#/	.	-dać	Giu-	-dahs	.
*	*	*	*	*	*	*	*	*	*	*	*	*	*	*	*	*	*	*	*	*	*	*	*v	*v	*	*	*	*
=3	=3	=3	=3	=3	=3	=3	=3	=3	=3	=3	=3	=3	=3	=3	=3	=3	=3	=3	=3	=3	=3	=3	=3	=3	=3	=3	=3
*	*	*	*	*	*	*	*	*	*	*	*	*	*	*	*	*	*	*	*	*	*	*color:darkblue	*	*	*	*	*
1ryy	.	1r	.	.	.	1ryy	.	.	.	1r	.	.	.	1ryy	.	1r	.	.	.	.	4b\	Fel-	4b/	wspar-	-dach	.	.
.	.	.	.	.	.	.	.	.	.	.	.	.	.	.	.	.	.	.	.	.	8a\j	-sen	4a/j	-ty	e	.	.
.	.	.	.	.	.	.	.	.	.	.	.	.	.	.	.	.	.	.	.	.	8a/	schau	.	.	.	.	.
.	.	.	.	.	.	.	.	.	.	.	.	.	.	.	.	.	.	.	.	.	8.g#/	nie-	8.g#/	na	splen-	.	.
.	.	.	.	.	.	.	.	.	.	.	.	.	.	.	.	.	.	.	.	.	16f#/	-der	16f#/	Ju-	-di-	.	.
.	.	.	.	.	.	.	.	.	.	.	.	.	.	.	.	.	.	.	.	.	8e/	ich	8e/	-da-	-do	.	.
!	!	!	!	!	!	!	!	!	!	!	!	!	!	!	!	!	!	!	!	!	!	!	!LO:ACC:color=grey	!	!	!	!
.	.	.	.	.	.	.	.	.	.	.	.	.	.	.	.	.	.	.	.	.	8d/	und	8d#X/	-hu	ve-	.	.
!!LO:LB:g=original
=4	=4	=4	=4	=4	=4	=4	=4	=4	=4	=4	=4	=4	=4	=4	=4	=4	=4	=4	=4	=4	=4	=4	=4	=4	=4	=4	=4
1ryy	.	1r	.	.	.	1ryy	.	.	.	1r	.	.	.	1ryy	.	1r	.	.	.	.	2r	.	8f#/	ska-	-de-	träu-	.
.	.	.	.	.	.	.	.	.	.	.	.	.	.	.	.	.	.	.	.	.	.	.	8e/	-le	-re	-me,	.
.	.	.	.	.	.	.	.	.	.	.	.	.	.	.	.	.	.	.	.	.	.	.	4r	.	.	.	.
.	.	.	.	.	.	.	.	.	.	.	.	.	.	.	.	.	.	.	.	.	8g#/	Wo	8.g#/	jak	co-	.	.
.	.	.	.	.	.	.	.	.	.	.	.	.	.	.	.	.	.	.	.	.	16g#/	bald	.	.	.	.	.
.	.	.	.	.	.	.	.	.	.	.	.	.	.	.	.	.	.	.	.	.	16g#/	die	16g#/	spie-	-me i 	.	.
.	.	.	.	.	.	.	.	.	.	.	.	.	.	.	.	.	.	.	.	.	(8cc#\	schwar-	8cc#\	-nio-	flut-	.	.
.	.	.	.	.	.	.	.	.	.	.	.	.	.	.	.	.	.	.	.	.	16dd#X\)	.	16dd#X\	-ne	-ti	.	.
.	.	.	.	.	.	.	.	.	.	.	.	.	.	.	.	.	.	.	.	.	16ee\	-ʒen	16ee\	bał-	schiu-	.	.
=5	=5	=5	=5	=5	=5	=5	=5	=5	=5	=5	=5	=5	=5	=5	=5	=5	=5	=5	=5	=5	=5	=5	=5	=5	=5	=5	=5
*	*	*	*	*	*	*	*	*	*	*	*	*	*	*	*	*	*	*	*	*	*	*	*^	*	*	*	*
!	!	!	!	!	!	!	!	!	!	!	!	!	!	!	!	!	!	!	!	!	!	!	!LO:TX:a:i:t=a tempo moderato.	!	!	!	!	!
1ryy	.	1r	.	.	.	1ryy	.	.	.	1r	.	.	.	1ryy	.	1r	.	.	.	.	4ee\	Käm-	4ee\	2ryy	-wa-	-man-	.	.
.	.	.	.	.	.	.	.	.	.	.	.	.	.	.	.	.	.	.	.	.	8b\	-me	8b\	.	-ny	-ti	.	.
.	.	.	.	.	.	.	.	.	.	.	.	.	.	.	.	.	.	.	.	.	16r	.	16r	.	.	.	.	.
.	.	.	.	.	.	.	.	.	.	.	.	.	.	.	.	.	.	.	.	.	16b\	der	16b\	.	to	in	.	.
!	!	!	!	!	!	!	!	!	!	!	!	!	!	!	!	!	!	!	!	!	!	!	!	!LO:TX:t=P:problem:stem.color=red	!	!	!	!
.	.	.	.	.	.	.	.	.	.	.	.	.	.	.	.	.	.	.	.	.	8a/	wild-	8a/L	8a\	w czar-	mi-	.	.
!	!	!	!	!	!	!	!	!	!	!	!	!	!	!	!	!	!	!	!	!	!	!	!	!LO:TX:t=P:problem:stem.color=red	!	!	!	!
.	.	.	.	.	.	.	.	.	.	.	.	.	.	.	.	.	.	.	.	.	8g#/	-em-	8g#/J	8g#\	.	-nac-	.	.
.	.	.	.	.	.	.	.	.	.	.	.	.	.	.	.	.	.	.	.	.	8f#/	-pör-	8f#/	4ryy	-ne	-cio-	.	.
.	.	.	.	.	.	.	.	.	.	.	.	.	.	.	.	.	.	.	.	.	8e/	-ten	8e/	.	sze-	-se	.	.
*	*	*	*	*	*	*	*	*	*	*	*	*	*	*	*	*	*	*	*	*	*	*	*v	*v	*	*	*	*
!!LO:PB:g=original
=6	=6	=6	=6	=6	=6	=6	=6	=6	=6	=6	=6	=6	=6	=6	=6	=6	=6	=6	=6	=6	=6	=6	=6	=6	=6	=6	=6
1ryy	.	1r	.	.	.	1ryy	.	.	.	1r	.	.	.	1ryy	.	1r	.	.	.	.	1ryy	.	4a/	-re-	schie-	Wo-	.
.	.	.	.	.	.	.	.	.	.	.	.	.	.	.	.	.	.	.	.	.	.	.	8b\	-gi	-ri	-gen	.
.	.	.	.	.	.	.	.	.	.	.	.	.	.	.	.	.	.	.	.	.	.	.	8cc#\	ści-	pro-	Sich	.
.	.	.	.	.	.	.	.	.	.	.	.	.	.	.	.	.	.	.	.	.	.	.	8.dd\	-sną-	-rom-	bäu-	.
.	.	.	.	.	.	.	.	.	.	.	.	.	.	.	.	.	.	.	.	.	.	.	16dd\	-wszy	-pa-	-men	.
.	.	.	.	.	.	.	.	.	.	.	.	.	.	.	.	.	.	.	.	.	.	.	8dd\	się	-no	und	.
.	.	.	.	.	.	.	.	.	.	.	.	.	.	.	.	.	.	.	.	.	.	.	16r	.	.	.	.
.	.	.	.	.	.	.	.	.	.	.	.	.	.	.	.	.	.	.	.	.	.	.	16dd\	bu-	ed	ver-	.
=7	=7	=7	=7	=7	=7	=7	=7	=7	=7	=7	=7	=7	=7	=7	=7	=7	=7	=7	=7	=7	=7	=7	=7	=7	=7	=7	=7
*	*	*	*	*	*	*	*	*	*	*	*	*	*	*	*	*	*	*	*	*	*	*	*^	*	*	*	*
1ryy	.	1r	.	.	.	1ryy	.	.	.	1r	.	.	.	1ryy	.	1r	.	.	.	.	2ryy	.	8dd\	2ryy	-cha-	o-	-sin-	.
.	.	.	.	.	.	.	.	.	.	.	.	.	.	.	.	.	.	.	.	.	.	.	16cc#\	.	-ją	-ra	-ken-	.
.	.	.	.	.	.	.	.	.	.	.	.	.	.	.	.	.	.	.	.	.	.	.	16r	.	.	.	.	.
.	.	.	.	.	.	.	.	.	.	.	.	.	.	.	.	.	.	.	.	.	.	.	4cc#\	.	to	in	-bald	.
.	.	.	.	.	.	.	.	.	.	.	.	.	.	.	.	.	.	.	.	.	8a/	gleich	4a/	8.a\@	jak	ni-	.	.
.	.	.	.	.	.	.	.	.	.	.	.	.	.	.	.	.	.	.	.	.	8a/	dem	.	.	.	.	.	.
.	.	.	.	.	.	.	.	.	.	.	.	.	.	.	.	.	.	.	.	.	.	.	.	16a\@	.	-ve	.	.
.	.	.	.	.	.	.	.	.	.	.	.	.	.	.	.	.	.	.	.	.	8g#/	Re-	8g#/	4ryy	sre-	e	.	.
.	.	.	.	.	.	.	.	.	.	.	.	.	.	.	.	.	.	.	.	.	8f#/	-gen	8f#/	.	-brne	cor-	.	.
!!LO:LB:g=original
=8	=8	=8	=8	=8	=8	=8	=8	=8	=8	=8	=8	=8	=8	=8	=8	=8	=8	=8	=8	=8	=8	=8	=8	=8	=8	=8	=8	=8
1ryy	.	1r	.	.	.	1ryy	.	.	.	1r	.	.	.	1ryy	.	1r	.	.	.	.	8cc#\	ba-	8cc#\	2ryy	śnie-	-ren-	.	.
.	.	.	.	.	.	.	.	.	.	.	.	.	.	.	.	.	.	.	.	.	16b\	-gen	8b\	.	-gi	-ti	.	.
.	.	.	.	.	.	.	.	.	.	.	.	.	.	.	.	.	.	.	.	.	16b\	In	.	.	.	.	.	.
.	.	.	.	.	.	.	.	.	.	.	.	.	.	.	.	.	.	.	.	.	8b\	sie-	8b\	.	w mi-	vor-	.	.
.	.	.	.	.	.	.	.	.	.	.	.	.	.	.	.	.	.	.	.	.	16cc#\LL	-ben	16cc#\LL	.	-lio-	-ti-	.	.
.	.	.	.	.	.	.	.	.	.	.	.	.	.	.	.	.	.	.	.	.	16dd\JJ	.	16dd\JJ	.	.	.	.	.
!	!	!	!	!	!	!	!	!	!	!	!	!	!	!	!	!	!	!	!	!	!	!	!	!LO:TX:t=P:problem:stem.color=red	!	!	!	!
.	.	.	.	.	.	.	.	.	.	.	.	.	.	.	.	.	.	.	.	.	4.ee\	Far-	4.ee\	4ee\	-no-	-co	.	.
.	.	.	.	.	.	.	.	.	.	.	.	.	.	.	.	.	.	.	.	.	.	.	.	8a/@	.	si	.	.
.	.	.	.	.	.	.	.	.	.	.	.	.	.	.	.	.	.	.	.	.	8a/	-ben	8a/	8a/	-wych	s'in-	.	.
=9	=9	=9	=9	=9	=9	=9	=9	=9	=9	=9	=9	=9	=9	=9	=9	=9	=9	=9	=9	=9	=9	=9	=9	=9	=9	=9	=9	=9
1ryy	.	1r	.	.	.	1ryy	.	.	.	1r	.	.	.	1ryy	.	1r	.	.	.	.	4.ff#\	strah-	4.ff#\	2ryy	tę-	-fran-	.	.
.	.	.	.	.	.	.	.	.	.	.	.	.	.	.	.	.	.	.	.	.	16cc#\	-lend,	16cc#\	.	-czach	-go-	.	.
.	.	.	.	.	.	.	.	.	.	.	.	.	.	.	.	.	.	.	.	.	16cc#\	zer-	16cc#\	.	ko-	-no in	.	.
.	.	.	.	.	.	.	.	.	.	.	.	.	.	.	.	.	.	.	.	.	8.ee\	-stie-	4ee\	8.ee/@	-łu-	spraz-	.	.
.	.	.	.	.	.	.	.	.	.	.	.	.	.	.	.	.	.	.	.	.	16ee\	-ben	.	16ee/@	.	-zi ir-	.	.
.	.	.	.	.	.	.	.	.	.	.	.	.	.	.	.	.	.	.	.	.	8dd\	weis-	8dd\	4ryy	-ją	-ri-	.	.
.	.	.	.	.	.	.	.	.	.	.	.	.	.	.	.	.	.	.	.	.	8b\	-se	8b\	.	wspa-	-dis-	.	.
!!LO:LB:g=original
=10	=10	=10	=10	=10	=10	=10	=10	=10	=10	=10	=10	=10	=10	=10	=10	=10	=10	=10	=10	=10	=10	=10	=10	=10	=10	=10	=10	=10
1ryy	.	1r	.	.	.	1ryy	.	.	.	1r	.	.	.	1ryy	.	1r	.	.	.	.	1ryy	.	4ee/	2..ryy	-nia-	-cen-	Schäu-	.
.	.	.	.	.	.	.	.	.	.	.	.	.	.	.	.	.	.	.	.	.	.	.	8a/	.	-le	-ti	-me;	.
.	.	.	.	.	.	.	.	.	.	.	.	.	.	.	.	.	.	.	.	.	.	.	8r	.	.	.	.	.
.	.	.	.	.	.	.	.	.	.	.	.	.	.	.	.	.	.	.	.	.	.	.	8b\	.	trą-	Con-	Bald	.
.	.	.	.	.	.	.	.	.	.	.	.	.	.	.	.	.	.	.	.	.	.	.	16cc#\	.	-cą	-tro	Scha-	.
.	.	.	.	.	.	.	.	.	.	.	.	.	.	.	.	.	.	.	.	.	.	.	16dd\	.	się	i	-ren	.
.	.	.	.	.	.	.	.	.	.	.	.	.	.	.	.	.	.	.	.	.	.	.	8cc#\	.	o	ban-	mächt-	.
.	.	.	.	.	.	.	.	.	.	.	.	.	.	.	.	.	.	.	.	.	.	.	8b\	16b/@	mie-	-chi	-ger	.
.	.	.	.	.	.	.	.	.	.	.	.	.	.	.	.	.	.	.	.	.	.	.	.	16b/@	.	di	.	.
=11	=11	=11	=11	=11	=11	=11	=11	=11	=11	=11	=11	=11	=11	=11	=11	=11	=11	=11	=11	=11	=11	=11	=11	=11	=11	=11	=11	=11
1ryy	.	1r	.	.	.	1ryy	.	.	.	1r	.	.	.	1ryy	.	1r	.	.	.	.	1ryy	.	4b\	2..ryy	-li-	sab-	Wel-	.
.	.	.	.	.	.	.	.	.	.	.	.	.	.	.	.	.	.	.	.	.	.	.	8a/	.	-znę	-bia	-len	.
.	.	.	.	.	.	.	.	.	.	.	.	.	.	.	.	.	.	.	.	.	.	.	8a/	.	i	i-	ans	.
.	.	.	.	.	.	.	.	.	.	.	.	.	.	.	.	.	.	.	.	.	.	.	8g#/	.	roz-	-ra-	U-	.
.	.	.	.	.	.	.	.	.	.	.	.	.	.	.	.	.	.	.	.	.	.	.	8b\	.	-bi-	-te	-fer	.
.	.	.	.	.	.	.	.	.	.	.	.	.	.	.	.	.	.	.	.	.	.	.	8cc#\	.	-ja-	ur-	stür-	.
.	.	.	.	.	.	.	.	.	.	.	.	.	.	.	.	.	.	.	.	.	.	.	8dd\	16dd/@	-ją	-ta-	-mend	.
.	.	.	.	.	.	.	.	.	.	.	.	.	.	.	.	.	.	.	.	.	.	.	.	16dd/@	.	-no	.	.
!!LO:LB:g=original
=12	=12	=12	=12	=12	=12	=12	=12	=12	=12	=12	=12	=12	=12	=12	=12	=12	=12	=12	=12	=12	=12	=12	=12	=12	=12	=12	=12	=12
1ryy	.	1r	.	.	.	1ryy	.	.	.	1r	.	.	.	1ryy	.	1r	.	.	.	.	1ryy	.	4dd\	2..ryy	fa-	l'on-	pral-	.
.	.	.	.	.	.	.	.	.	.	.	.	.	.	.	.	.	.	.	.	.	.	.	8cc#\	.	-le	-de	-len,	.
.	.	.	.	.	.	.	.	.	.	.	.	.	.	.	.	.	.	.	.	.	.	.	16r	.	.	.	.	.
.	.	.	.	.	.	.	.	.	.	.	.	.	.	.	.	.	.	.	.	.	.	.	16cc#\	.	jak	e	Ein	.
.	.	.	.	.	.	.	.	.	.	.	.	.	.	.	.	.	.	.	.	.	.	.	8.ee\	.	woj-	co-	Heer	.
.	.	.	.	.	.	.	.	.	.	.	.	.	.	.	.	.	.	.	.	.	.	.	16dd\	.	-sko	-me im-	von	.
.	.	.	.	.	.	.	.	.	.	.	.	.	.	.	.	.	.	.	.	.	.	.	8cc#\	.	wie-	-ma	Un-	.
.	.	.	.	.	.	.	.	.	.	.	.	.	.	.	.	.	.	.	.	.	.	.	8b\	16b/@	-lo-	ni	-ge-	.
.	.	.	.	.	.	.	.	.	.	.	.	.	.	.	.	.	.	.	.	.	.	.	.	16b/@	.	ba-	.	.
*	*	*	*	*	*	*	*	*	*	*	*	*	*	*	*	*	*	*	*	*	*	*	*v	*v	*	*	*	*
=13	=13	=13	=13	=13	=13	=13	=13	=13	=13	=13	=13	=13	=13	=13	=13	=13	=13	=13	=13	=13	=13	=13	=13	=13	=13	=13	=13
1ryy	.	1r	.	.	.	1ryy	.	.	.	1r	.	.	.	1ryy	.	1r	.	.	.	.	1ryy	.	8cc#\	-ry-	-le-	-heu-	.
.	.	.	.	.	.	.	.	.	.	.	.	.	.	.	.	.	.	.	.	.	.	.	8g#/	-bów	-ne	-ern,	.
.	.	.	.	.	.	.	.	.	.	.	.	.	.	.	.	.	.	.	.	.	.	.	(8b\	za-	gia	von	.
.	.	.	.	.	.	.	.	.	.	.	.	.	.	.	.	.	.	.	.	.	.	.	8dd\)	-le-	as-	.	.
.	.	.	.	.	.	.	.	.	.	.	.	.	.	.	.	.	.	.	.	.	.	.	8.cc#\	-ga-	-sal-	drä-	.
.	.	.	.	.	.	.	.	.	.	.	.	.	.	.	.	.	.	.	.	.	.	.	16b\	-jąc	-ta-	-uen	.
.	.	.	.	.	.	.	.	.	.	.	.	.	.	.	.	.	.	.	.	.	.	.	8a/	mo-	-no	dun-	.
.	.	.	.	.	.	.	.	.	.	.	.	.	.	.	.	.	.	.	.	.	.	.	8g#/	-rskie	le	-klen	.
!!LO:LB:g=original
=14	=14	=14	=14	=14	=14	=14	=14	=14	=14	=14	=14	=14	=14	=14	=14	=14	=14	=14	=14	=14	=14	=14	=14	=14	=14	=14	=14
1ryy	.	1r	.	.	.	1ryy	.	.	.	1r	.	.	.	1ryy	.	1r	.	.	.	.	1ryy	.	8b/	brze-	spon-	Mas-	.
.	.	.	.	.	.	.	.	.	.	.	.	.	.	.	.	.	.	.	.	.	.	.	8a/	-gi	-de	-sen,	.
.	.	.	.	.	.	.	.	.	.	.	.	.	.	.	.	.	.	.	.	.	.	.	8r	.	.	.	.
!	!	!	!	!	!	!	!	!	!	!	!	!	!	!	!	!	!	!	!	!	!	!	!LO:TX:a:t=Recit.	!	!	!	!
.	.	.	.	.	.	.	.	.	.	.	.	.	.	.	.	.	.	.	.	.	.	.	8cc#\	w try-	In-	Den	.
.	.	.	.	.	.	.	.	.	.	.	.	.	.	.	.	.	.	.	.	.	.	.	8.b\	-um-	-va-	Straud	.
.	.	.	.	.	.	.	.	.	.	.	.	.	.	.	.	.	.	.	.	.	.	.	16a/	-fie	-do-	mit	.
.	.	.	.	.	.	.	.	.	.	.	.	.	.	.	.	.	.	.	.	.	.	.	8.g#/	ląd	-no	Sieg	.
.	.	.	.	.	.	.	.	.	.	.	.	.	.	.	.	.	.	.	.	.	.	.	16f#/	zdo-	la	er	.
=15	=15	=15	=15	=15	=15	=15	=15	=15	=15	=15	=15	=15	=15	=15	=15	=15	=15	=15	=15	=15	=15	=15	=15	=15	=15	=15	=15
1ryy	.	1r	.	.	.	1ryy	.	.	.	1r	.	.	.	1ryy	.	1r	.	.	.	.	4ff#\	o-	4.ff#\	-bę-	ter-	.	.
.	.	.	.	.	.	.	.	.	.	.	.	.	.	.	.	.	.	.	.	.	8ff#\	-bern	.	.	.	.	.
.	.	.	.	.	.	.	.	.	.	.	.	.	.	.	.	.	.	.	.	.	8cc#\	und	8cc#\	-dą	-ra	.	.
.	.	.	.	.	.	.	.	.	.	.	.	.	.	.	.	.	.	.	.	.	8dd\	ei-	8dd\	i	poi	.	.
.	.	.	.	.	.	.	.	.	.	.	.	.	.	.	.	.	.	.	.	.	8cc#\	-lends	8cc#\	na	an-	.	.
.	.	.	.	.	.	.	.	.	.	.	.	.	.	.	.	.	.	.	.	.	8b\	ihn	8b\	po-	-cor	.	.
.	.	.	.	.	.	.	.	.	.	.	.	.	.	.	.	.	.	.	.	.	8cc#\	ver	8cc#\	-wrót	res-	.	.
!!LO:LB:g=original
=16	=16	=16	=16	=16	=16	=16	=16	=16	=16	=16	=16	=16	=16	=16	=16	=16	=16	=16	=16	=16	=16	=16	=16	=16	=16	=16	=16
1ryy	.	1r	.	.	.	1ryy	.	.	.	1r	.	.	.	1ryy	.	1r	.	.	.	.	1ryy	.	4ee\	zbie-	-pin-	-las-	.
.	.	.	.	.	.	.	.	.	.	.	.	.	.	.	.	.	.	.	.	.	.	.	8dd\	-gi	-te	-sen,	.
.	.	.	.	.	.	.	.	.	.	.	.	.	.	.	.	.	.	.	.	.	.	.	8r	.	.	.	.
.	.	.	.	.	.	.	.	.	.	.	.	.	.	.	.	.	.	.	.	.	.	.	4dd\	mą-	Trag-	Mit	.
.	.	.	.	.	.	.	.	.	.	.	.	.	.	.	.	.	.	.	.	.	.	.	8.a/	-cą	-gon	tau-	.
.	.	.	.	.	.	.	.	.	.	.	.	.	.	.	.	.	.	.	.	.	.	.	16b/	za	co-	-send-	.
=17	=17	=17	=17	=17	=17	=17	=17	=17	=17	=17	=17	=17	=17	=17	=17	=17	=17	=17	=17	=17	=17	=17	=17	=17	=17	=17	=17
1ryy	.	1r	.	.	.	1ryy	.	.	.	1r	.	.	.	1ryy	.	1r	.	.	.	.	2cc#\	Mus-	2.cc#\	so-	-ral-	.	.
.	.	.	.	.	.	.	.	.	.	.	.	.	.	.	.	.	.	.	.	.	4cc#\	-cheln	.	.	.	.	.
.	.	.	.	.	.	.	.	.	.	.	.	.	.	.	.	.	.	.	.	.	4cc#\	be	4cc#\	-bą	-li	.	.
=18	=18	=18	=18	=18	=18	=18	=18	=18	=18	=18	=18	=18	=18	=18	=18	=18	=18	=18	=18	=18	=18	=18	=18	=18	=18	=18	=18
*	*	*	*	*	*	*	*	*	*	*	*	*	*	*	*	*	*	*	*	*	*	*	*^	*	*	*	*
1ryy	.	1r	.	.	.	1ryy	.	.	.	1r	.	.	.	1ryy	.	1r	.	.	.	.	1ryy	.	2.ff#\	2.ryy	per-	per-	sät,	.
.	.	.	.	.	.	.	.	.	.	.	.	.	.	.	.	.	.	.	.	.	.	.	4cc#\	8cc#/@	-ły	-le	und	.
.	.	.	.	.	.	.	.	.	.	.	.	.	.	.	.	.	.	.	.	.	.	.	.	8cc#/@	.	con-	.	.
*	*	*	*	*	*	*	*	*	*	*	*	*	*	*	*	*	*	*	*	*	*	*	*v	*v	*	*	*	*
=19	=19	=19	=19	=19	=19	=19	=19	=19	=19	=19	=19	=19	=19	=19	=19	=19	=19	=19	=19	=19	=19	=19	=19	=19	=19	=19	=19
1ryy	.	1r	.	.	.	1ryy	.	.	.	1r	.	.	.	1ryy	.	1r	.	.	.	.	1ryy	.	4a/	mu-	-chi-	Per-	.
.	.	.	.	.	.	.	.	.	.	.	.	.	.	.	.	.	.	.	.	.	.	.	4g#/	-szle	-glie	-len	.
.	.	.	.	.	.	.	.	.	.	.	.	.	.	.	.	.	.	.	.	.	.	.	4f#/	i	va-	und	.
.	.	.	.	.	.	.	.	.	.	.	.	.	.	.	.	.	.	.	.	.	.	.	4dd\	ko-	-rio	Ko-	.
!!LO:LB:g=original
=20	=20	=20	=20	=20	=20	=20	=20	=20	=20	=20	=20	=20	=20	=20	=20	=20	=20	=20	=20	=20	=20	=20	=20	=20	=20	=20	=20
1ryy	.	1r	.	.	.	1ryy	.	.	.	1r	.	.	.	1ryy	.	1r	.	.	.	.	1ryy	.	1cc#	-ra	pin	-ra	.
=21||	=21||	=21||	=21||	=21||	=21||	=21||	=21||	=21||	=21||	=21||	=21||	=21||	=21||	=21||	=21||	=21||	=21||	=21||	=21||	=21||	=21||	=21||	=21||	=21||	=21||	=21||	=21||
!!!OMD: Largo.
*k[f#c#g#d#a#e#]	*	*k[f#c#g#d#a#e#]	*	*	*	*k[f#c#g#d#a#e#]	*	*	*	*k[f#c#g#d#a#e#]	*	*	*	*k[f#c#g#d#a#e#]	*	*k[f#c#g#d#a#e#]	*	*	*	*	*k[f#c#g#d#a#e#]	*	*k[f#c#g#d#a#e#]	*	*	*	*
*	*	*	*	*	*	*	*	*	*	*	*	*	*	*	*	*	*	*	*	*	*	*	*^	*	*	*	*
!	!	!	!	!	!	!	!	!	!	!	!	!	!	!	!	!	!	!	!	!	!	!	!LO:TX:a:t=2.	!	!	!	!	!
1ryy	.	1r	.	.	.	1ryy	.	.	.	1r	.	.	.	1ryy	.	1r	.	.	.	.	1ryy	.	1r	4f#/@	le	te	len.	.
.	.	.	.	.	.	.	.	.	.	.	.	.	.	.	.	.	.	.	.	.	.	.	.	4ryy	.	.	.	.
.	.	.	.	.	.	.	.	.	.	.	.	.	.	.	.	.	.	.	.	.	.	.	.	2ryy	.	.	.	.
*	*	*	*	*	*	*	*	*	*	*	*	*	*	*	*	*	*	*	*	*	*	*	*v	*v	*	*	*	*
=22	=22	=22	=22	=22	=22	=22	=22	=22	=22	=22	=22	=22	=22	=22	=22	=22	=22	=22	=22	=22	=22	=22	=22	=22	=22	=22	=22
1ryy	.	1r	.	.	.	1ryy	.	.	.	1r	.	.	.	1ryy	.	1r	.	.	.	.	1ryy	.	1r	.	.	.	.
=23	=23	=23	=23	=23	=23	=23	=23	=23	=23	=23	=23	=23	=23	=23	=23	=23	=23	=23	=23	=23	=23	=23	=23	=23	=23	=23	=23
1ryy	.	1r	.	.	.	1ryy	.	.	.	1r	.	.	.	1ryy	.	1r	.	.	.	.	1ryy	.	4r	.	.	.	.
.	.	.	.	.	.	.	.	.	.	.	.	.	.	.	.	.	.	.	.	.	.	.	8r	.	.	.	.
.	.	.	.	.	.	.	.	.	.	.	.	.	.	.	.	.	.	.	.	.	.	.	8cc#\	Po-	Co-	Auch	.
.	.	.	.	.	.	.	.	.	.	.	.	.	.	.	.	.	.	.	.	.	.	.	8.a#/	-do-	-si	dei-	.
.	.	.	.	.	.	.	.	.	.	.	.	.	.	.	.	.	.	.	.	.	.	.	16g#/	-bnie	nel	-ner	.
.	.	.	.	.	.	.	.	.	.	.	.	.	.	.	.	.	.	.	.	.	.	.	8f#/	na	tu-	See-	.
.	.	.	.	.	.	.	.	.	.	.	.	.	.	.	.	.	.	.	.	.	.	.	8e#/	twe	-o	-le	.
!!LO:LB:g=original
=24	=24	=24	=24	=24	=24	=24	=24	=24	=24	=24	=24	=24	=24	=24	=24	=24	=24	=24	=24	=24	=24	=24	=24	=24	=24	=24	=24
1ryy	.	1r	.	.	.	1ryy	.	.	.	1r	.	.	.	1ryy	.	1r	.	.	.	.	4d#/	drä-	4.d#/	ser-	co-	.	.
.	.	.	.	.	.	.	.	.	.	.	.	.	.	.	.	.	.	.	.	.	8d#/	-uen,	.	.	.	.	.
.	.	.	.	.	.	.	.	.	.	.	.	.	.	.	.	.	.	.	.	.	8c#/	o	8c#/	-ce	-re o	.	.
.	.	.	.	.	.	.	.	.	.	.	.	.	.	.	.	.	.	.	.	.	8f#/	jun-	8f#/	o	gio-	.	.
.	.	.	.	.	.	.	.	.	.	.	.	.	.	.	.	.	.	.	.	.	8g#/	-ger	8g#/	po-	-va-	.	.
.	.	.	.	.	.	.	.	.	.	.	.	.	.	.	.	.	.	.	.	.	8a#/	Sohn	8a#/	-e-	-ne	.	.
.	.	.	.	.	.	.	.	.	.	.	.	.	.	.	.	.	.	.	.	.	8dd#\	der	8dd#\	-to	po-	.	.
=25	=25	=25	=25	=25	=25	=25	=25	=25	=25	=25	=25	=25	=25	=25	=25	=25	=25	=25	=25	=25	=25	=25	=25	=25	=25	=25	=25
1ryy	.	1r	.	.	.	1ryy	.	.	.	1r	.	.	.	1ryy	.	1r	.	.	.	.	1ryy	.	4cc#\	mło-	-e-	Mu-	.
.	.	.	.	.	.	.	.	.	.	.	.	.	.	.	.	.	.	.	.	.	.	.	8cc#\	-dy!	-ta!	-sen,	.
.	.	.	.	.	.	.	.	.	.	.	.	.	.	.	.	.	.	.	.	.	.	.	16r	.	.	.	.
.	.	.	.	.	.	.	.	.	.	.	.	.	.	.	.	.	.	.	.	.	.	.	16cc#\	na-	Tem-	Gar	.
.	.	.	.	.	.	.	.	.	.	.	.	.	.	.	.	.	.	.	.	.	.	.	8.b#X\	-mięt-	-pes-	aft	.
.	.	.	.	.	.	.	.	.	.	.	.	.	.	.	.	.	.	.	.	.	.	.	16cc#\	-ność	-te	der	.
.	.	.	.	.	.	.	.	.	.	.	.	.	.	.	.	.	.	.	.	.	.	.	8.dd#\	czę-	ea	Lei-	.
.	.	.	.	.	.	.	.	.	.	.	.	.	.	.	.	.	.	.	.	.	.	.	16ee#\	-sto	pas-	-den	.
!!LO:PB:g=original
=26	=26	=26	=26	=26	=26	=26	=26	=26	=26	=26	=26	=26	=26	=26	=26	=26	=26	=26	=26	=26	=26	=26	=26	=26	=26	=26	=26
1ryy	.	1r	.	.	.	1ryy	.	.	.	1r	.	.	.	1ryy	.	1r	.	.	.	.	4ff#\	schaf-	4.ff#\	gro-	-sio-	.	.
.	.	.	.	.	.	.	.	.	.	.	.	.	.	.	.	.	.	.	.	.	8ff#\	-ten	.	.	.	.	.
.	.	.	.	.	.	.	.	.	.	.	.	.	.	.	.	.	.	.	.	.	8f#/	em-	8f#/	-źne	-ne	.	.
.	.	.	.	.	.	.	.	.	.	.	.	.	.	.	.	.	.	.	.	.	8.g#/	-pör-	8.g#/	wzbu-	cre-	.	.
.	.	.	.	.	.	.	.	.	.	.	.	.	.	.	.	.	.	.	.	.	16a#/	-te	16a#/	-rza	-a	.	.
.	.	.	.	.	.	.	.	.	.	.	.	.	.	.	.	.	.	.	.	.	8.b\	Stur-	8.b\	nie-	e il	.	.
.	.	.	.	.	.	.	.	.	.	.	.	.	.	.	.	.	.	.	.	.	16cc#\	-mes-	16cc#\	-po-	do-	.	.
=27	=27	=27	=27	=27	=27	=27	=27	=27	=27	=27	=27	=27	=27	=27	=27	=27	=27	=27	=27	=27	=27	=27	=27	=27	=27	=27	=27
!	!	!	!	!	!	!	!	!	!	!	!	!	!	!	!	!	!	!	!	!	!	!	!LO:TX:a:B:t=A:color=red	!	!	!	!
4r	.	4r	.	.	.	4r	.	.	.	4r	.	.	.	4r	.	4r	.	.	.	.	4dd#\	-flu-	4..dd#\	-go-	-lo-	.	.
*	*	*	*	*	*	*	*color:darkblue	*	*	*	*	*	*	*	*	*	*	*color:red	*	*	*	*	*	*	*	*	*
!	!	!	!	!	!	!	!	!	!	!	!	!	!	!	!	!	!	!	!	!LO:DY:rj	!	!	!	!	!	!	!
4B\	.	8.B\	Lecz	.	.	4d#\	Doch	.	.	8.d#\	Lecz	.	.	4f#/	.	8.f#/	Lecz	ma-	.	f	8.dd#\	-ten;	.	.	.	.	.
!	!	!	!	!	!	!	!	!	!	!	!	!	!	!	!	!	!	!	!	!	!	!	!	!	!	!	!LO:DY:rj
.	.	16B\	gdy	.	.	.	.	.	.	16d#\	gdy	.	.	.	.	16f#/	gdy	-se	.	.	16dd#\	Doch	16dd#\	-dy.	-re	.	f
8.B\	.	4B\	bar-	.	.	8.c#\	vor	.	.	4c#\	bar-	.	.	8.g#/	.	4g#/	bar-	toc-	.	.	8.ee#\	vor	4ee#\	Bar-	ma-	.	.
16B\	.	.	.	.	.	16c#\	dem	.	.	.	.	.	.	16g#/	.	.	.	.	.	.	16ee#\	dem	.	.	.	.	.
8.B\	.	8.B\	-don	.	.	8.d#\	Klang	.	.	8.d#\	-don	.	.	8.g#/	.	8.g#/	-don	-chi	.	.	8.dd#\	Klang	8.dd#\	-don	-se	.	.
16B\	.	16B\	po-	.	.	16e#\	der	.	.	16e#\	po-	.	.	16g#/	.	16g#/	po-	Ca-	.	.	16cc#\	der	16cc#\	po-	Ca-	.	.
!!pagebreak:original
=28	=28	=28	=28	=28	=28	=28	=28	=28	=28	=28	=28	=28	=28	=28	=28	=28	=28	=28	=28	=28	=28	=28	=28	=28	=28	=28	=28
*	*	*	*	*	*	*	*	*	*	*	*	*color:red	*	*	*	*	*	*	*	*	*	*	*	*	*	*	*
4A#\	.	4.A#\	-chwy-	.	.	4f#\	Le-	.	.	4.f#\	-chwy-	li-	.	4f#/	.	4.f#/	-chwy-	-li-	.	.	4cc#\	Le-	4.cc#\	-chwy-	-li-	.	.
8A#\	.	.	.	.	.	8f#\	-ier	.	.	.	.	.	.	8f#/	.	.	.	.	.	.	8cc#\	-ier	.	.	.	.	.
8A#\	.	8A#\	-cisz	.	.	8c#\	vers-	.	.	8c#\	-cisz	-ra	.	8c#/	.	8c#/	-cisz	-ra	.	.	8ff#\	vers-	8ff#\	-cisz	-ra	.	.
8G#\	.	8G#\	o-	.	.	8B\	-tum-	.	.	8B\	o-	o-	.	8e#/	.	8e#/	o-	o-	.	.	8ee#\	-tum-	8ee#\	o-	toc-	.	.
8G#\	.	8G#\	-na	.	.	8B\	-men	.	.	8B\	-na	-gni	.	8e#/	.	8e#/	-na	-gni	.	.	8dd#\	-men	8dd#\	-na	-chi	.	.
8G#\	.	8G#\	bez	.	.	8B\	sie	.	.	8B\	bez	mal	.	8e#/	.	8e#/	bez	mal	.	.	8cc#\	sie	8cc#\	bez	o-	.	.
8G#\	.	8G#\	twej	.	.	8c#\	zur	.	.	8c#\	twej	spa	.	8e#/	.	8e#/	twej	spa	.	.	8b\	zur	8b\	twej	-gni	.	.
=29	=29	=29	=29	=29	=29	=29	=29	=29	=29	=29	=29	=29	=29	=29	=29	=29	=29	=29	=29	=29	=29	=29	=29	=29	=29	=29	=29
*	*	*	*	*	*	*	*	*	*	*	*	*	*color:darkblue	*	*	*	*	*	*	*	*	*	*	*	*	*	*
1ryy	.	4F#\	szko-	.	.	1ryy	.	.	.	4c#\	szko-	ris-	Stun-	1ryy	.	4f#/	szko-	ris-	.	.	1ryy	.	4a#/	szko-	ma-	stun-	.
.	.	8F#\	-dy,	.	.	.	.	.	.	8A#/	-dy,	-ce	-de,	.	.	8f#/	-dy,	-ce	.	.	.	.	8a#/	-dy,	-le	-de,	.
.	.	8A#\	u-	.	.	.	.	.	.	8A#/	u-	nel	Und	.	.	8a#/	u-	nel	.	.	.	.	8a#/	u-	spa-	Und	.
.	.	8G#\	-cie-	.	.	.	.	.	.	8G#/	-cie-	te-	sie	.	.	8g#/	-cie-	te-	.	.	.	.	8g#/	-cie-	-ris-	sie	.
.	.	8F#\	-ka	.	.	.	.	.	.	8F#/	-ka	-ne-	ent-	.	.	8f#/	-ka	-ne-	.	.	.	.	8f#/	-ka-	-ce	ent-	.
.	.	8E#\	w za-	.	.	.	.	.	.	8E#/	w za-	-bro-	-flie-	.	.	8e#/	w za-	-bro-	.	.	.	.	8e#/	-w za-	nel	-flie-	.
.	.	8D#\	-po-	.	.	.	.	.	.	8D#/	-po-	-so ob-	-hen	.	.	8d#/	-po-	-so ob	.	.	.	.	8d#/	-po-	ob-	-hen	.
!!LO:PB:g=original
=30	=30	=30	=30	=30	=30	=30	=30	=30	=30	=30	=30	=30	=30	=30	=30	=30	=30	=30	=30	=30	=30	=30	=30	=30	=30	=30	=30
*	*	*	*	*color:red	*	*	*	*	*	*	*	*	*	*	*	*	*	*	*	*	*	*	*	*	*	*	*
!	!	!	!	!	!	!	!	!	!	!	!	!	!	!	!	!	!	!	!	!	!	!	!	!	!	!	!LO:DY:color=grey
4C#/	.	4C#/	-mnie-	blio	.	4F#/	ei-	.	.	4F#/	-mnie-	-blio	.	4c#/	.	4c#/	-mnie-	.	.	.	4f#/	ei-	4f#/	-mnie-	-bli-	.	p
8AAn/	.	8AAn/	-nia	o	.	8En/	-lends	.	.	8En/	-nia	o	.	8c#/	.	8c#/	-nia	.	.	.	8c#/	-lends	8c#/	-nia	-o	.	.
8AA/	.	8AA/	po-	si as-	.	8E/	aus	.	.	8E/	po-	si as-	.	8c#/	.	8c#/	po-	.	.	.	8c#/	aus	8c#/	po-	si as-	.	.
8Dn\	.	4Dn\	-grą-	-con-	.	8F#/	dem	.	.	4F#/	-grą-	-con-	.	8cn/	.	4cn/	-grą-	.	.	.	8cn/	dem	4cn/	-grą-	-con-	.	.
8D\	.	.	.	.	.	8F#/	be-	.	.	.	.	.	.	8c/	.	.	.	.	.	.	8c/	be-	.	.	.	.	.
8GGn/	.	8GGn/	-żyć	-di e	.	8E#X/	-frei-	.	.	8E#X/	-żyć	-de e	.	8B/	.	8B/	-żyć	.	.	.	8B/	-frei-	8B/	-żyć	-de e	.	.
8GG/	.	8GG/	się	va-	.	8E#/	-ten	.	.	8E#/	się	va-	.	8B/	.	8B/	się	.	.	.	8B/	-ten	8B/	się	va-	.	.
=31	=31	=31	=31	=31	=31	=31	=31	=31	=31	=31	=31	=31	=31	=31	=31	=31	=31	=31	=31	=31	=31	=31	=31	=31	=31	=31	=31
*	*	*	*	*	*color:darkblue	*	*	*	*	*	*	*	*	*	*	*	*	*	*	*	*	*	*	*	*	*	*
1ryy	.	4FF#/	to-	-ni-	Bu-	1ryy	.	.	.	4F#/	to-	-ni-	Bu-	1ryy	.	4A#/	to-	.	.	.	1ryy	.	4A#/	to-	-ni-	Bu-	.
.	.	8C#/	-ni,	-sce.	-sen,	.	.	.	.	8C#/	-ni	-sce!	-sen,	.	.	8c#/	-ni	.	.	.	.	.	8c#/	-ni	-sce	-sen,	.
.	.	8C#/	i	Ed	Und	.	.	.	.	8r	.	.	.	.	.	8r	.	.	.	.	.	.	8r	.	.	.	.
.	.	8C#/	pie-	im-	lich-	.	.	.	.	2r	.	.	.	.	.	2r	.	.	.	.	.	.	2r	.	.	.	.
.	.	8D#\	-śni	-mor-	-te	.	.	.	.	.	.	.	.	.	.	.	.	.	.	.	.	.	.	.	.	.	.
.	.	8F#\	nie-	-ta-	Lie-	.	.	.	.	.	.	.	.	.	.	.	.	.	.	.	.	.	.	.	.	.	.
.	.	8A#\	-śmier-	-li	-des	.	.	.	.	.	.	.	.	.	.	.	.	.	.	.	.	.	.	.	.	.	.
!!LO:LB:g=original
=32	=32	=32	=32	=32	=32	=32	=32	=32	=32	=32	=32	=32	=32	=32	=32	=32	=32	=32	=32	=32	=32	=32	=32	=32	=32	=32	=32
*	*color:darkblue	*	*	*	*	*	*	*	*	*	*	*	*	*	*	*	*	*	*	*	*	*	*	*	*	*	*
4c#\	per-	4.c#\	-tel-	can-	.	1ryy	.	.	.	1r	.	.	.	1ryy	.	1r	.	.	.	.	1ryy	.	1r	.	.	.	.
8c#\	-len,	.	.	.	.	.	.	.	.	.	.	.	.	.	.	.	.	.	.	.	.	.	.	.	.	.	.
!LO:ACC:color=darkblue	!	!	!	!	!	!	!	!	!	!	!	!	!	!	!	!	!	!	!	!	!	!	!	!	!	!	!
8B#X\	sie	8B#X\	-ne	-ti al	.	.	.	.	.	.	.	.	.	.	.	.	.	.	.	.	.	.	.	.	.	.	.
8G#\	ge-	8G#\	za	mon-	.	.	.	.	.	.	.	.	.	.	.	.	.	.	.	.	.	.	.	.	.	.	.
8F#\	-ben	8F#\	so-	-do	.	.	.	.	.	.	.	.	.	.	.	.	.	.	.	.	.	.	.	.	.	.	.
8D#\	spät	8D#\	-bą	ab-	.	.	.	.	.	.	.	.	.	.	.	.	.	.	.	.	.	.	.	.	.	.	.
16E#\LL	noch	16E#\LL	u-	-ban-	.	.	.	.	.	.	.	.	.	.	.	.	.	.	.	.	.	.	.	.	.	.	.
16D#\JJ	.	16D#\JJ	.	.	.	.	.	.	.	.	.	.	.	.	.	.	.	.	.	.	.	.	.	.	.	.	.
=33	=33	=33	=33	=33	=33	=33	=33	=33	=33	=33	=33	=33	=33	=33	=33	=33	=33	=33	=33	=33	=33	=33	=33	=33	=33	=33	=33
1ryy	.	2.C#/	-ro-	-do-	Kun-	1ryy	.	.	.	2r	.	.	.	1ryy	.	1r	.	.	.	.	1ryy	.	4r	.	.	.	.
.	.	.	.	.	.	.	.	.	.	.	.	.	.	.	.	.	.	.	.	.	.	.	8r	.	.	.	.
.	.	.	.	.	.	.	.	.	.	.	.	.	.	.	.	.	.	.	.	.	.	.	8c#/	i	ed	Und	.
.	.	.	.	.	.	.	.	.	.	4r	.	.	.	.	.	.	.	.	.	.	.	.	8f#/	pie-	im-	lich-	.
.	.	.	.	.	.	.	.	.	.	.	.	.	.	.	.	.	.	.	.	.	.	.	8g#/	-śni	-mor-	-te	.
.	.	8C#/	-ni	-na	-de	.	.	.	.	8r	.	.	.	.	.	.	.	.	.	.	.	.	8a#/	nie-	-ta-	Lie-	.
.	.	8r	.	.	.	.	.	.	.	8C#/	i	Ed	Und	.	.	.	.	.	.	.	.	.	8cc#\	-śmier-	-li	-des	.
!!LO:PB:g=original
=34	=34	=34	=34	=34	=34	=34	=34	=34	=34	=34	=34	=34	=34	=34	=34	=34	=34	=34	=34	=34	=34	=34	=34	=34	=34	=34	=34
1ryy	.	1r	.	.	.	1ryy	.	.	.	8F#/	pie-	im-	li-	1ryy	.	1r	.	.	.	.	4ff#\	per-	4.ff#\	-tel-	Can-	.	.
.	.	.	.	.	.	.	.	.	.	8G#/	-śni	-mor-	-chte	.	.	.	.	.	.	.	.	.	.	.	.	.	.
.	.	.	.	.	.	.	.	.	.	8A#/	nie-	-ta-	Lie-	.	.	.	.	.	.	.	8ff#\	-len,	.	.	.	.	.
.	.	.	.	.	.	.	.	.	.	8c#\	-śmier-	-li	-des	.	.	.	.	.	.	.	8ee#\	sie	8ee#\	-ne	-ti al	.	.
.	.	.	.	.	.	.	.	.	.	4.f#\	-tel-	Can-	per-	.	.	.	.	.	.	.	8cc#\	ge-	8cc#\	za	mon-	.	.
.	.	.	.	.	.	.	.	.	.	.	.	.	.	.	.	.	.	.	.	.	8a#/	-ben	8a#/	so-	-do	.	.
.	.	.	.	.	.	.	.	.	.	.	.	.	.	.	.	.	.	.	.	.	8f#/	spät	8f#/	-bą	ab-	.	.
.	.	.	.	.	.	.	.	.	.	16e#\	-ne	-ti	-len	.	.	.	.	.	.	.	8g#/	noch	8g#/	u-	-ban-	.	.
.	.	.	.	.	.	.	.	.	.	16d#\	u-	al	sie	.	.	.	.	.	.	.	.	.	.	.	.	.	.
=35	=35	=35	=35	=35	=35	=35	=35	=35	=35	=35	=35	=35	=35	=35	=35	=35	=35	=35	=35	=35	=35	=35	=35	=35	=35	=35	=35
!	!	!	!	!	!	!	!	!	!	!	!	!	!	!	!	!	!	!	!	!	!	!	!LO:TX:a:B:t=J:color=red	!	!	!	!
1ryy	.	4r	.	.	.	1ryy	.	.	.	8c#\	-ro-	mon-	ge-	1ryy	.	4r	.	.	.	.	1ryy	.	8a#/	-ro-	-do-	Kun-	.
.	.	.	.	.	.	.	.	.	.	8c#\	-ni	-do	-hen	.	.	.	.	.	.	.	.	.	8f#/	-ni,	-na	-de,	.
.	.	8F#\	nie-	im-	Lie-	.	.	.	.	8c#\	nie-	ab-	spät	.	.	8f#/	nie-	im-	.	.	.	.	8a#/	nie-	im-	Lie-	.
.	.	8F#\	-śmier-	-mor-	-des-	.	.	.	.	8c#\	-śmier-	-ban-	noch	.	.	8f#/	-śmier-	-mor-	.	.	.	.	8a#/	-śmier-	-mor-	-des	.
.	.	(4E#X\	-tel-	-ta-	-per-	.	.	.	.	2dn\	-tel-	-do-	Kun-	.	.	(4gn/	-tel-	-ta-	.	.	.	.	(4b\	-tel-	-ta-	per-	.
.	.	4En\	.	.	.	.	.	.	.	.	.	.	.	.	.	4g#X/	.	.	.	.	.	.	4b#X\	.	.	.	.
!!LO:LB:g=original
=36	=36	=36	=36	=36	=36	=36	=36	=36	=36	=36	=36	=36	=36	=36	=36	=36	=36	=36	=36	=36	=36	=36	=36	=36	=36	=36	=36
!	!	!LO:TX:t=P:problem:brak zakończenia łuku	!	!	!	!	!	!	!	!	!	!	!	!	!	!LO:TX:t=P:problem:brak zakończenia łuku	!	!	!	!	!	!	!LO:TX:t=P:problem:brak zakończenia łuku	!	!	!	!
1ryy	.	8AAn/)	-ne,	-li	-len,	1ryy	.	.	.	8c#\	-ne	-na	-de,	1ryy	.	8an/)	-ne	-li	.	.	1ryy	.	8cc#\)	-ne,	-li	-len,	.
.	.	8r	.	.	.	.	.	.	.	8r	.	.	.	.	.	8r	.	.	.	.	.	.	8r	.	.	.	.
.	.	8An\	nie-	.	Lie-	.	.	.	.	8en\	nie-	im-	Lie-	.	.	8a/	nie-	.	.	.	.	.	8cc#\	nie-	im-	Lie-	.
.	.	8A\	-śmier-	.	-des-	.	.	.	.	8e\	-śmier-	-mor-	-des	.	.	8a/	-śmier-	.	.	.	.	.	8cc#\	-śmier-	-mor-	-des	.
.	.	(4G#\	-tel-	.	-per-	.	.	.	.	2fn\	-tel-	-ta-	per-	.	.	(4b-X\	-tel-	.	.	.	.	.	(4ddn\	-tel-	-ta-	per-	.
.	.	4Gn\)	.	.	.	.	.	.	.	.	.	.	.	.	.	4bn\)	.	.	.	.	.	.	4dd#X\)	.	.	.	.
=37	=37	=37	=37	=37	=37	=37	=37	=37	=37	=37	=37	=37	=37	=37	=37	=37	=37	=37	=37	=37	=37	=37	=37	=37	=37	=37	=37
1ryy	.	8Cn/	-ne,	.	-len,	1ryy	.	.	.	8en\	-ne,	-li	-len	1ryy	.	8ccn\	-ne,	.	.	.	1ryy	.	8een\	-ne,	-li	-len,	.
.	.	8r	.	.	.	.	.	.	.	8r	.	.	.	.	.	8r	.	.	.	.	.	.	8r	.	.	.	.
!	!	!	!	!	!	!	!	!	!	!	!	!	!	!	!	!	!	!	!	!	!	!	!	!	!	!	!LO:HP:coor=grey
.	.	8cn\	pie-	.	lich-	.	.	.	.	8e\	pie-	.	lich-	.	.	8gn/	pie-	.	.	.	.	.	8ee\	pie-	Can-	lich-	<
.	.	8c\	-śni	.	-te	.	.	.	.	8e\	-śni	.	-te	.	.	8g/	-śni	.	.	.	.	.	8ee\	-śni	-ti	-te	.
.	.	4B\	nie-	.	Lie-	.	.	.	.	4dn\	nie-	.	Lie-	.	.	4g#X/	nie-	.	.	.	.	.	4ee\	nie-	im-	Lie-	.
.	.	4B-X\	-śmier-	.	-des	.	.	.	.	4d\	-śmier-	.	-des-	.	.	4g#/	-śmier-	.	.	.	.	.	4ee#X\	-śmier-	-mor-	-der	[[
!!LO:PB:g=original
=38	=38	=38	=38	=38	=38	=38	=38	=38	=38	=38	=38	=38	=38	=38	=38	=38	=38	=38	=38	=38	=38	=38	=38	=38	=38	=38	=38
*	*	*^	*	*	*	*	*	*	*	*	*	*	*	*	*	*^	*	*	*	*	*	*	*	*	*	*	*
2ryy	.	4.An\	2ryy	-tel-	.	.	1ryy	.	.	.	4.dn\	-tel-	.	-per-	2ryy	.	4.an/	2ryy	-tel-	.	.	.	1ryy	.	(4ff#\	-tel-	-ta-	per-	.
.	.	.	.	.	.	.	.	.	.	.	.	.	.	.	.	.	.	.	.	.	.	.	.	.	8een\)	.	.	.	.
.	.	8AAn/	.	-ne	.	.	.	.	.	.	8An/	-ne	.	-len	.	.	8f#/	.	-ne	.	.	.	.	.	8ddn\	-ne	-li	-len	.
4A#\	Wie	4A\	4A/@	z któ-	.	.	.	.	.	.	(4c#\	z któ-	.	Wie	4f#/	Wie	4.f#/	4f#\@	z któ-	.	.	.	.	.	(4cc#\	z któ-	che	Wie	.
8G#X\	ei-	4G#X\	8G#X/@	-rych	cin-	.	.	.	.	.	8B#X\)	.	.	ei-	8f#/	ei-	.	8f#/@	.	.	.	.	.	.	8b#X\)	.	cin-	ei-	.
8G#\	-nes	.	8G#/@	.	-ge	.	.	.	.	.	8Bn\	-rych	.	-nes	8e#X/	-nes	8e#/	8e#\@	-rych	.	.	.	.	.	8bn\	-rych	-ge-	-nes	.
*	*	*v	*v	*	*	*	*	*	*	*	*	*	*	*	*	*	*v	*v	*	*	*	*	*	*	*	*	*	*	*
=39	=39	=39	=39	=39	=39	=39	=39	=39	=39	=39	=39	=39	=39	=39	=39	=39	=39	=39	=39	=39	=39	=39	=39	=39	=39	=39	=39
4.F#\	Dich-	2F#\	wie-	ran-	.	1ryy	.	.	.	(4.A#X/	wie-	.	Dich-	4.f#/	Dich-	2.f#/	wie-	.	.	.	1ryy	.	(4.a#X/	wie-	-ran-	Dich-	.
8F#\	-ters	.	.	.	.	.	.	.	.	8B\	.	.	-ters	8f#/	-ters	.	.	.	.	.	.	.	8b\	.	.	-ters	.
4F#\	Her-	4F#\	-ki	no	.	.	.	.	.	8B#X\L	.	.	Her-	4f#/	Her-	.	.	.	.	.	.	.	8b#X\L	.	.	Her-	.
.	.	.	.	.	.	.	.	.	.	8c#\J)	.	.	.	.	.	.	.	.	.	.	.	.	8cc#\J)	.	.	.	.
8.F#\	-ze	4F#\	u-	tua	.	.	.	.	.	8.e#X\	-ki	.	-ze	8.e#X/	-ze	8.e#X/	-ki	.	.	.	.	.	8.ee#X\	-ki	-no	-ze	.
16F#\	in	.	.	.	.	.	.	.	.	16d#\	u-	.	in	16f#/	in	16f#/	u-	.	.	.	.	.	16dd#\	u-	tua	in	.
!!LO:LB:g=original
=40	=40	=40	=40	=40	=40	=40	=40	=40	=40	=40	=40	=40	=40	=40	=40	=40	=40	=40	=40	=40	=40	=40	=40	=40	=40	=40	=40
*	*	*	*	*	*	*	*	*	*	*	*	*	*	*	*	*	*	*	*color:darkblue	*	*	*	*	*	*	*	*
4GG#/	Tö-	4GG#/	-plo-	.	.	4.ryy	.	.	.	4d#\	-plo-	.	Tö-	4.ryy	.	4f#/	-plo-	.	Tö-	.	4.ryy	.	4dd#\	-plo-	fron-	Tö-	.
16GG#/	-nen	16GG#/	-tą	.	.	.	.	.	.	16d#\	-tą	.	-nen,	.	.	16f#/	-tą	.	-nen	.	.	.	16cc#\	-tą	-te	-nen,	.
16r	.	16r	.	.	.	.	.	.	.	16r	.	.	.	.	.	16r	.	.	.	.	.	.	16r	.	.	.	.
*	*	*	*	*	*	*	*	*	*	*	*	*	*	*	*color:darkblue	*	*	*	*	*	*	*	*	*	*	*	*
16GG#/	muss-	8GG#/	o-	.	.	8d#\	in	.	.	8d#\	o-	.	.	8f#/	in	8f#/	o-	.	.	.	8b\	in	8b\	o-	Die-	.	.
16GG#/	-te	.	.	.	.	.	.	.	.	.	.	.	.	.	.	.	.	.	.	.	.	.	.	.	.	.	.
2C#/	blu	2C#/	-zdo-	.	.	8d#\	Tö-	.	.	4d#\	-zdo-	.	.	8e#/	Tö-	4e#/	-zdo-	.	.	.	8b\	Tö-	4b\	-zdo-	-ter-	.	.
.	.	.	.	.	.	8d#\	-nen	.	.	.	.	.	.	8e#/	-nen	.	.	.	.	.	8b\	-nen	.	.	.	.	.
.	.	.	.	.	.	8c#\	mus-	.	.	8c#\	-bę	.	.	8e#/	mus-	8e#/	-bę	.	.	.	8a#/	mus-	8a#/	-bę	-ne	.	.
.	.	.	.	.	.	8B\	-ste	.	.	8B\	twej	.	.	8e#/	-ste	8e#/	twej	.	.	.	8g#/	-ste	8g#/	twej	co-	.	.
=41	=41	=41	=41	=41	=41	=41	=41	=41	=41	=41	=41	=41	=41	=41	=41	=41	=41	=41	=41	=41	=41	=41	=41	=41	=41	=41	=41
1ryy	.	4C#/	-bę	.	ten.	1ryy	.	.	.	4A#/	skro-	.	blu-	1ryy	.	4f#/	skro-	.	blu-	.	1ryy	.	4f#/	skro-	-ro-	blu-	.
.	.	8r	.	.	.	.	.	.	.	8F#/	-ni.	.	-ten	.	.	8c#/	-ni.	.	-ten.	.	.	.	8a#/	-ni	-ne	-ten.	.
.	.	8C#/	i	Ed	Und	.	.	.	.	8r	.	.	.	.	.	8r	.	.	.	.	.	.	8r	.	.	.	.
.	.	8C#/	pie-	im-	lich-	.	.	.	.	2r	.	.	.	.	.	2r	.	.	.	.	.	.	2r	.	.	.	.
.	.	8D#\	-śni	-mor-	-te	.	.	.	.	.	.	.	.	.	.	.	.	.	.	.	.	.	.	.	.	.	.
.	.	8F#\	nie-	-ta-	Lie-	.	.	.	.	.	.	.	.	.	.	.	.	.	.	.	.	.	.	.	.	.	.
.	.	8A#\	-śmier-	-li	-des.	.	.	.	.	.	.	.	.	.	.	.	.	.	.	.	.	.	.	.	.	.	.
!!LO:LB:g=original
=42	=42	=42	=42	=42	=42	=42	=42	=42	=42	=42	=42	=42	=42	=42	=42	=42	=42	=42	=42	=42	=42	=42	=42	=42	=42	=42	=42
4c#\	per-	4.c#\	-tel-	can-	.	1ryy	.	.	.	1r	.	.	.	1ryy	.	1r	.	.	.	.	1ryy	.	1r	.	.	.	.
8c#\	-len,	.	.	.	.	.	.	.	.	.	.	.	.	.	.	.	.	.	.	.	.	.	.	.	.	.	.
8B#X\	si	8B#X\	-ne	-ti al	.	.	.	.	.	.	.	.	.	.	.	.	.	.	.	.	.	.	.	.	.	.	.
8G#\	ge-	8G#\	za	mon-	.	.	.	.	.	.	.	.	.	.	.	.	.	.	.	.	.	.	.	.	.	.	.
8F#\	-ben	8F#\	so-	-do	.	.	.	.	.	.	.	.	.	.	.	.	.	.	.	.	.	.	.	.	.	.	.
8D#\	spät	8D#\	-bą	ab-	.	.	.	.	.	.	.	.	.	.	.	.	.	.	.	.	.	.	.	.	.	.	.
16E#\LL	noch	16E#\LL	u-	-ban-	.	.	.	.	.	.	.	.	.	.	.	.	.	.	.	.	.	.	.	.	.	.	.
16D#\JJ	.	16D#\JJ	.	.	.	.	.	.	.	.	.	.	.	.	.	.	.	.	.	.	.	.	.	.	.	.	.
=43	=43	=43	=43	=43	=43	=43	=43	=43	=43	=43	=43	=43	=43	=43	=43	=43	=43	=43	=43	=43	=43	=43	=43	=43	=43	=43	=43
!	!	!	!	!	!	!	!	!	!	!	!	!	!	!	!	!	!	!	!	!	!	!	!LO:TX:a:B:t=O:color=red	!	!	!	!
1ryy	.	2.C#/	-ro-	-do-	Kun-	1ryy	.	.	.	2r	.	.	.	1ryy	.	1r	.	.	.	.	1ryy	.	4r	.	.	.	.
.	.	.	.	.	.	.	.	.	.	.	.	.	.	.	.	.	.	.	.	.	.	.	8r	.	.	.	.
.	.	.	.	.	.	.	.	.	.	.	.	.	.	.	.	.	.	.	.	.	.	.	8c#/	i	ed	und	.
.	.	.	.	.	.	.	.	.	.	4r	.	.	.	.	.	.	.	.	.	.	.	.	8f#/	pie-	im-	lich-	.
.	.	.	.	.	.	.	.	.	.	.	.	.	.	.	.	.	.	.	.	.	.	.	8g#/	-śni	-mor-	-te	.
.	.	8C#/	-ni	-na	-de	.	.	.	.	8r	.	.	.	.	.	.	.	.	.	.	.	.	8a#/	nie-	-ta-	Lie-	.
.	.	8r	.	.	.	.	.	.	.	8C#/	i	.	Und	.	.	.	.	.	.	.	.	.	8cc#\	-śmier-	-li	-des	.
!!LO:PB:g=original
=44	=44	=44	=44	=44	=44	=44	=44	=44	=44	=44	=44	=44	=44	=44	=44	=44	=44	=44	=44	=44	=44	=44	=44	=44	=44	=44	=44
1ryy	.	1r	.	.	.	1ryy	.	.	.	8F#/	pie-	.	lich-	1ryy	.	1r	.	.	.	.	4ff#\	per-	4.ff#\	-tel-	can-	.	.
.	.	.	.	.	.	.	.	.	.	8G#/	-śni	.	-te	.	.	.	.	.	.	.	.	.	.	.	.	.	.
.	.	.	.	.	.	.	.	.	.	8A#/	nie-	.	Lie-	.	.	.	.	.	.	.	8ff#\	-len,	.	.	.	.	.
.	.	.	.	.	.	.	.	.	.	8c#\	-śmier-	.	-des-	.	.	.	.	.	.	.	8ee#\	sie	8ee#\	-ne	-ti al	.	.
.	.	.	.	.	.	.	.	.	.	4.f#\	-tel-	.	-per-	.	.	.	.	.	.	.	2ryy	.	8cc#\	za	mon-	ge-	.
.	.	.	.	.	.	.	.	.	.	.	.	.	.	.	.	.	.	.	.	.	.	.	8a#/	so-	-do	-ben	.
.	.	.	.	.	.	.	.	.	.	.	.	.	.	.	.	.	.	.	.	.	.	.	8f#/	-bą	ab-	spät	.
.	.	.	.	.	.	.	.	.	.	16e#\	-ne	.	-len	.	.	.	.	.	.	.	.	.	8g#/	u-	-ban-	noch	.
.	.	.	.	.	.	.	.	.	.	16d#\	u-	.	sie	.	.	.	.	.	.	.	.	.	.	.	.	.	.
=45	=45	=45	=45	=45	=45	=45	=45	=45	=45	=45	=45	=45	=45	=45	=45	=45	=45	=45	=45	=45	=45	=45	=45	=45	=45	=45	=45
1ryy	.	4r	.	.	.	1ryy	.	.	.	8c#\	-ro-	.	ge-	1ryy	.	4r	.	.	.	.	1ryy	.	8a#/	-ro-	-do	Kun-	.
.	.	.	.	.	.	.	.	.	.	8c#\	-ni,	.	-ben	.	.	.	.	.	.	.	.	.	8f#/	-ni,	do-	-de,	.
.	.	8F#\	nie-	im-	ge-	.	.	.	.	8c#\	nie-	.	spät	.	.	8f#/	nie-	im-	ge-	.	.	.	8a#/	nie-	-na	ge-	.
.	.	8F#\	-śmier-	-mor-	-ben	.	.	.	.	8c#\	-śmier-	.	noch	.	.	8f#/	-śmier-	-mor-	-ben	.	.	.	8a#/	-śmier-	im-	-ben	.
!	!	!	!	!	!	!	!	!	!	!	!	!	!	!	!	!	!	!	!	!	!	!	!LO:S:color=grey	!	!	!	!
.	.	(4E#X\	-tel-	-ta-	Kun-	.	.	.	.	(2dn\	-tel-	.	Kun-	.	.	(4gn/	-tel-	-ta-	Kun-	.	.	.	(4b\	-tel-	-mor-	Kun-	.
.	.	4En\	.	.	.	.	.	.	.	.	.	.	.	.	.	4g#X/	.	.	.	.	.	.	4b#X\	.	-ta-	.	.
!!LO:LB:g=original
=46	=46	=46	=46	=46	=46	=46	=46	=46	=46	=46	=46	=46	=46	=46	=46	=46	=46	=46	=46	=46	=46	=46	=46	=46	=46	=46	=46
!	!	!LO:TX:t=P:problem:koniec łuku na dole	!	!	!	!	!	!	!	!	!	!	!	!	!	!	!	!	!	!	!	!	!	!	!	!	!
1ryy	.	8AAn/)	-ne,	-li	-de,	1ryy	.	.	.	8c#\)	-ne	.	-de,	1ryy	.	8an/)	-ne,	-li	-de,	.	1ryy	.	8cc#\)	-ne,	-li	-de,	.
.	.	8r	.	.	.	.	.	.	.	8r	.	.	.	.	.	8r	.	.	.	.	.	.	8r	.	.	.	.
.	.	8An\	nie-	.	.	.	.	.	.	8en\	nie-	.	Lie-	.	.	8a/	nie-	.	.	.	.	.	8cc#\	nie-	im-	Lie-	.
.	.	8A\	-śmier-	.	.	.	.	.	.	8e\	-śmier-	.	-des	.	.	8a/	-śmier-	.	.	.	.	.	8cc#\	-śmier-	-mor-	-des	.
!	!	!	!	!	!	!	!	!	!	!	!	!	!	!	!	!	!	!	!	!	!	!	!LO:S:color=grey	!	!	!	!
.	.	(4G#\	-tel-	.	.	.	.	.	.	2fn\	-tel-	.	per-	.	.	(4b-X\	-tel-	.	.	.	.	.	(4ddn\	-tel-	-ta-	per-	.
.	.	4Gn\)	.	.	.	.	.	.	.	.	.	.	.	.	.	4bn\)	.	.	.	.	.	.	4dd#X\)	.	.	.	.
=47	=47	=47	=47	=47	=47	=47	=47	=47	=47	=47	=47	=47	=47	=47	=47	=47	=47	=47	=47	=47	=47	=47	=47	=47	=47	=47	=47
1ryy	.	8Cn/	-ne,	.	.	1ryy	.	.	.	8en\	-ne,	.	-len,	1ryy	.	8ccn\	-ne	.	.	.	1ryy	.	8een\	-ne,	-li	-len,	.
.	.	8r	.	.	.	.	.	.	.	8r	.	.	.	.	.	8r	.	.	.	.	.	.	8r	.	.	.	.
.	.	8cn\	pie-	.	.	.	.	.	.	8e\	pie-	.	lich-	.	.	8gn/	pie-	.	.	.	.	.	8ee\	pie-	can-	lich-	.
.	.	8c\	-śni	.	.	.	.	.	.	8e\	-śni	.	-te	.	.	8g/	-śni	.	.	.	.	.	8ee\	-śni	-ti	-te	.
.	.	4B\	nie-	.	.	.	.	.	.	4dn\	nie-	.	Lie-	.	.	4g#X/	nie-	.	.	.	.	.	4ee\	nie-	im-	Lie-	.
.	.	4B-X\	-śmier-	.	.	.	.	.	.	4d\	-śmier-	.	-des	.	.	4g#/	-śmier-	.	.	.	.	.	4ee#X\	-śmier-	-mor-	-des	.
!!LO:LB:g=original
=48	=48	=48	=48	=48	=48	=48	=48	=48	=48	=48	=48	=48	=48	=48	=48	=48	=48	=48	=48	=48	=48	=48	=48	=48	=48	=48	=48
*	*	*^	*	*	*	*	*	*	*	*	*	*	*	*	*	*^	*	*	*	*	*	*	*	*	*	*	*
!	!	!	!	!	!	!	!	!	!	!	!	!	!	!	!	!	!	!	!	!	!	!	!	!	!LO:S:color=grey	!	!	!	!
2ryy	.	4.An\	2ryy	-tel-	ta-	.	1ryy	.	.	.	4.dn\	-tel-	.	per-	2ryy	.	4.an/	2ryy	-tel-	.	.	.	1ryy	.	(4ff#\	-tel-	-ta-	per-	.
.	.	.	.	.	.	.	.	.	.	.	.	.	.	.	.	.	.	.	.	.	.	.	.	.	8een\)	.	.	.	.
.	.	8AAn/	.	-ne	-li	.	.	.	.	.	8An/	-ne	.	-len	.	.	8f#/	.	-ne	.	.	.	.	.	8ddn\	-ne	-li	-len	.
!	!	!	!	!	!	!	!	!	!	!	!LO:S:color=grey	!	!	!	!	!	!	!	!	!	!	!	!	!	!LO:S:color=grey	!	!	!	!
4A#\	.	4A\	4ryy	z któ-	che	.	.	.	.	.	(4c#\	z któ-	.	Wie	4f#/	.	4.f#/	4f#\@	z któ-	.	.	.	.	.	(4cc#\	z któ-	che	Wie	.
8G#X\	.	4G#X\	8G#X/@	-rych	cin-	.	.	.	.	.	8B#X\)	.	.	ei-	8f#/	.	.	8f#/@	.	.	.	.	.	.	8b#X\)	.	cin-	ei-	.
8G#\	.	.	8G#/@	.	-ge	.	.	.	.	.	8Bn\	-rych	.	-nen	8e#X/	.	8e#/	8e#\@	-rych	.	.	.	.	.	8bn\	-rych	-ge-	-nes	.
*	*	*v	*v	*	*	*	*	*	*	*	*	*	*	*	*	*	*v	*v	*	*	*	*	*	*	*	*	*	*	*
=49	=49	=49	=49	=49	=49	=49	=49	=49	=49	=49	=49	=49	=49	=49	=49	=49	=49	=49	=49	=49	=49	=49	=49	=49	=49	=49	=49
!	!	!	!	!	!	!	!	!	!	!LO:S:color=grey	!	!	!	!	!	!	!	!	!	!	!	!	!LO:S:color=grey	!	!	!	!
4.F#\	.	2F#\	wie-	ran-	.	1ryy	.	.	.	(4.A#X/	wie-	.	Dich-	4.f#/	.	(2.f#/	wie-	.	.	.	1ryy	.	(4.a#X/	wie-	-ran-	Dich-	.
8F#\	.	.	.	.	.	.	.	.	.	8B\	.	.	-ters	8f#/	.	.	.	.	.	.	.	.	8b\	.	.	-ters	.
4F#\	.	4F#\	-ki	-no	.	.	.	.	.	8B#X\L	.	.	Her-	4f#/	.	.	.	.	.	.	.	.	(8b#X\L	.	.	Her-	.
.	.	.	.	.	.	.	.	.	.	8c#\J	.	.	.	.	.	.	.	.	.	.	.	.	8cc#\J))	.	.	.	.
8.F#\	.	4F#\	u-	tua	.	.	.	.	.	8.e#X\)	-ki	.	-ze	8.e#X/	.	8.e#X/)	-ki	.	.	.	.	.	8.ee#X\	-ki	-no	-ze	.
16F#\	.	.	.	.	.	.	.	.	.	16d#\	u-	.	in	16f#/	.	16f#/	u-	.	.	.	.	.	16dd#\	u-	tua	in	.
!!LO:PB:g=original
=50	=50	=50	=50	=50	=50	=50	=50	=50	=50	=50	=50	=50	=50	=50	=50	=50	=50	=50	=50	=50	=50	=50	=50	=50	=50	=50	=50
2ryy	.	4GG#/	-plo-	.	.	2ryy	.	.	.	4d#\	-plo-	.	Tö-	2ryy	.	4f#/	-plo-	.	.	.	2ryy	.	4dd#\	-plo-	fron-	Tö-	.
.	.	16GG#/	-tą	.	.	.	.	.	.	16d#\	-tą	.	-nen,	.	.	16f#/	-tą	.	.	.	.	.	16cc#\	-tą	-te	-nen,	.
.	.	16r	.	.	.	.	.	.	.	16r	.	.	.	.	.	16r	.	.	.	.	.	.	16r	.	.	.	.
.	.	8GG#/	o-	.	.	.	.	.	.	8d#\	o-	.	in	.	.	8f#/	o-	.	.	.	.	.	8b\	o-	di e-	in	.
*	*	*	*	*	*	*	*	*	*color:darkblue	*	*	*	*	*	*	*	*	*	*	*	*	*	*	*	*	*	*
8C#/	.	4C#/	-zdo-	.	.	8d#\	.	.	Tö-	4d#\	-zdo-	.	.	8e#/	.	4e#/	-zdo-	.	.	.	8b\	Tö-	4b\	-zdo-	-ter-	.	.
8C#/	.	.	.	.	.	8d#\	.	.	-nen	.	.	.	.	8e#/	.	.	.	.	.	.	8b\	-nen	.	.	.	.	.
8C#/	.	8C#/	-bę	.	.	8c#\	.	.	mus-	8c#\	-bę	.	.	8e#/	.	8e#/	-bę	.	.	.	8a#/	mus-	8a#/	-bę	-na	.	.
8C#/	.	8C#/	twej	.	.	8B\	.	.	-ste	8B\	twej	.	.	8e#/	.	8e#/	twej	.	.	.	8g#/	-ste	8g#/	twej	co-	.	.
=51	=51	=51	=51	=51	=51	=51	=51	=51	=51	=51	=51	=51	=51	=51	=51	=51	=51	=51	=51	=51	=51	=51	=51	=51	=51	=51	=51
1ryy	.	8F#\	skro-	.	.	1ryy	.	.	.	4A#/	skro-	.	blu-	1ryy	.	8f#/	skro-	.	.	.	1ryy	.	8f#/	skro-	-ro-	blu-	.
.	.	8C#/	-ni	.	.	.	.	.	.	.	.	.	.	.	.	8c#/	-ni	.	.	.	.	.	8c#/	-ni	-na	-ten.	.
.	.	8C#/	z któ-	cin-	Wie	.	.	.	.	8c#\	-ni	.	-ten	.	.	4r	.	.	.	.	.	.	4r	.	.	.	.
.	.	8C#/	-rych	-ge-	des	.	.	.	.	8r	.	.	.	.	.	.	.	.	.	.	.	.	.	.	.	.	.
.	.	[4F#\	wie-	-ran-	Dich-	.	.	.	.	2r	.	.	.	.	.	2r	.	.	.	.	.	.	2r	.	.	.	.
.	.	8F#\]	-ki	-no	.	.	.	.	.	.	.	.	.	.	.	.	.	.	.	.	.	.	.	.	.	.	.
.	.	8F#\	u-	tua	-ters	.	.	.	.	.	.	.	.	.	.	.	.	.	.	.	.	.	.	.	.	.	.
!!LO:LB:g=original
=52	=52	=52	=52	=52	=52	=52	=52	=52	=52	=52	=52	=52	=52	=52	=52	=52	=52	=52	=52	=52	=52	=52	=52	=52	=52	=52	=52
*	*	*^	*	*	*	*	*	*	*	*	*	*	*	*	*	*	*	*	*	*	*	*	*	*	*	*	*
1ryy	.	4A#\	2ryy	-plo-	fron-	Her-	1ryy	.	.	.	1r	.	.	.	1ryy	.	1r	.	.	.	.	1ryy	.	1r	.	.	.	.
.	.	8F#\	.	-tą	-te	-ze	.	.	.	.	.	.	.	.	.	.	.	.	.	.	.	.	.	.	.	.	.	.
.	.	8F#\	.	o-	die-	in	.	.	.	.	.	.	.	.	.	.	.	.	.	.	.	.	.	.	.	.	.	.
.	.	8c#/j	4c#\	-zdo-	-ter-	Tö-	.	.	.	.	.	.	.	.	.	.	.	.	.	.	.	.	.	.	.	.	.	.
.	.	8c#/j	.	.	.	-nen	.	.	.	.	.	.	.	.	.	.	.	.	.	.	.	.	.	.	.	.	.	.
.	.	8A#\	4ryy	-bę	-na	mus-	.	.	.	.	.	.	.	.	.	.	.	.	.	.	.	.	.	.	.	.	.	.
.	.	8F#\	.	twych	co-	-ste	.	.	.	.	.	.	.	.	.	.	.	.	.	.	.	.	.	.	.	.	.	.
*	*	*v	*v	*	*	*	*	*	*	*	*	*	*	*	*	*	*	*	*	*	*	*	*	*	*	*	*	*
=53	=53	=53	=53	=53	=53	=53	=53	=53	=53	=53	=53	=53	=53	=53	=53	=53	=53	=53	=53	=53	=53	=53	=53	=53	=53	=53	=53
1ryy	.	4C#/	skro-	-ron'	blu-	1ryy	.	.	.	4r	.	.	.	1ryy	.	1r	.	.	.	.	1ryy	.	1r	.	.	.	.
.	.	8F#\	-ni,	cin-	-ten,	.	.	.	.	8F#/	z któ-	Cin-	Wie	.	.	.	.	.	.	.	.	.	.	.	.	.	.
.	.	8F#\	z nich	-ge-	des	.	.	.	.	8F#/	-rych	-ge-	des	.	.	.	.	.	.	.	.	.	.	.	.	.	.
!	!	!LO:S:color=darkblue	!	!	!	!	!	!	!	!LO:S:color=grey	!	!	!	!	!	!	!	!	!	!	!	!	!	!	!	!	!
.	.	(4A#\	wie-	-ran-	Dich-	.	.	.	.	(4A#/	wie-	-ran-	Dich-	.	.	.	.	.	.	.	.	.	.	.	.	.	.
.	.	8F#\)	-ki	-no	.	.	.	.	.	8F#/)	-ki	-no	.	.	.	.	.	.	.	.	.	.	.	.	.	.	.
.	.	8F#\	u-	tua	-ters	.	.	.	.	8F#/	u-	tua	-ters	.	.	.	.	.	.	.	.	.	.	.	.	.	.
!!LO:PB:g=original
=54	=54	=54	=54	=54	=54	=54	=54	=54	=54	=54	=54	=54	=54	=54	=54	=54	=54	=54	=54	=54	=54	=54	=54	=54	=54	=54	=54
2ryy	.	4c#\	-plo-	fron-	.	2ryy	.	.	.	4c#\	-plo-	fron-	Her-	4ryy	.	4r	.	.	.	.	2.ryy	.	2r	.	.	.	.
.	.	8A#\	-tą	-te	.	.	.	.	.	8A#/	-tą	-te	-ze	8ryy	.	8r	.	.	.	.	.	.	.	.	.	.	.
.	.	8F#\	o-	die-	.	.	.	.	.	8c#\	o-	die-	in	8c#/	in	8c#/	o-	die-	.	.	.	.	.	.	.	.	.
8F#\	.	4F#\	-zdo-	-ter-	.	8f#\	.	.	Tö-	4f#\	-zdo-	-ter-	.	8f#/	Tö-	4f#/	-zdo-	-ter-	.	.	.	.	4r	.	.	.	.
8F#\	.	.	.	.	.	8f#\	.	.	-nen	.	.	.	.	8f#/	-nen	.	.	.	.	.	.	.	.	.	.	.	.
8F#\	.	8F#\	-bę	-na	.	8c#\	.	.	muss-	8c#\	-bę	-na	.	8c#/	mus-	8c#/	-bę	-na	.	.	8cc#\	mus-	8r	.	.	.	.
8c#\	.	8c#\	twych	co-	.	8c#\	.	.	-te	8c#\	twych	co-	.	8cc# 8c#/	-ste	8cc# 8c#/	twych	co-	.	.	8cc#\	-ste	8cc#\	twych	co-	.	.
=55	=55	=55	=55	=55	=55	=55	=55	=55	=55	=55	=55	=55	=55	=55	=55	=55	=55	=55	=55	=55	=55	=55	=55	=55	=55	=55	=55
!	!	!LO:S:color=darkblue	!	!	!	!	!	!	!	!	!	!	!	!	!	!LO:S:color=grey	!	!	!	!	!	!	!LO:S:color=grey	!	!	!	!
1ryy	.	[1F#	skro-	-ro-	.	1ryy	.	.	.	[1f# [>1c#	skro-	-ro-	blu-	1ryy	.	[>1a#	skro-	-ro-	blu-	.	1ryy	.	[1ff#	skro-	-ro-	blu-	.
=56	=56	=56	=56	=56	=56	=56	=56	=56	=56	=56	=56	=56	=56	=56	=56	=56	=56	=56	=56	=56	=56	=56	=56	=56	=56	=56	=56
1ryy	.	1F#]	.	.	.	1ryy	.	.	.	1f#] 1c#]	.	.	.	1ryy	.	1a#]	.	.	.	.	1ryy	.	1ff#]	.	.	.	.
!!LO:LB:g=original
=57	=57	=57	=57	=57	=57	=57	=57	=57	=57	=57	=57	=57	=57	=57	=57	=57	=57	=57	=57	=57	=57	=57	=57	=57	=57	=57	=57
1ryy	.	4FF#/	-ni.	-na!	.	1ryy	.	.	.	4F#/	-ni	-na!	-ten!	1ryy	.	4f#/	-ni.	-na!	-ten!	.	1ryy	.	4f#/	-ni.	-na!	-ten!	.
.	.	4r	.	.	.	.	.	.	.	4r	.	.	.	.	.	4r	.	.	.	.	.	.	4r	.	.	.	.
.	.	2r	.	.	.	.	.	.	.	2r	.	.	.	.	.	2r	.	.	.	.	.	.	2r	.	.	.	.
=58	=58	=58	=58	=58	=58	=58	=58	=58	=58	=58	=58	=58	=58	=58	=58	=58	=58	=58	=58	=58	=58	=58	=58	=58	=58	=58	=58
!	!	!LO:TX:a:t=1.	!	!	!	!	!	!	!	!LO:TX:a:t=1.	!	!	!	!	!	!LO:TX:a:t=1.	!	!	!	!	!	!	!LO:TX:a:t=1.	!	!	!	!
1ryy	.	1r	.	.	.	1ryy	.	.	.	1r	.	.	.	1ryy	.	1r	.	.	.	.	1ryy	.	1r	.	.	.	.
=59	=59	=59	=59	=59	=59	=59	=59	=59	=59	=59	=59	=59	=59	=59	=59	=59	=59	=59	=59	=59	=59	=59	=59	=59	=59	=59	=59
1ryy	.	1r;	.	.	.	1ryy	.	.	.	1r;	.	.	.	1ryy	.	1r;	.	.	.	.	1ryy	.	1r;	.	.	.	.
==	==	==	==	==	==	==	==	==	==	==	==	==	==	==	==	==	==	==	==	==	==	==	==	==	==	==	==
*-	*-	*-	*-	*-	*-	*-	*-	*-	*-	*-	*-	*-	*-	*-	*-	*-	*-	*-	*-	*-	*-	*-	*-	*-	*-	*-	*-
!!!system-decoration: (s1,s2,s3,s4,s5,s6,s7,s8)
!!!RDF**kern: > = above
!!!RDF**kern: < = below
!!!RDF**kern: @ = market note, color=red
!!!RDF**kern: j = market note, color=blue
!!!AIN: 2 alto 2 empty 2 soprn 2 tenor
!!!ENC: Anastazja Marusiak
!!!END: 2021-08-23
!!!ENC: Marta Lawrence
!!!END: 2021-10-06
